svg/emoji_u1f9b2.svg

<svg width="128" height="128" viewBox="0 0 128 128" fill="none" xmlns="http://www.w3.org/2000/svg">
<g clip-path="url(#clip0_183_91)">
<path d="M20.9001 112.77C12.4501 112.77 5.58008 105.4 5.58008 96.3502C5.58008 87.3002 12.4501 79.9302 20.9001 79.9302H107.1C115.55 79.9302 122.42 87.3002 122.42 96.3502C122.42 105.4 115.55 112.77 107.1 112.77H20.9001Z" fill="#E59600" style="fill:#E59600;fill:color(display-p3 0.8980 0.5882 0.0000);fill-opacity:1;"/>
<path d="M64.0002 147.5C50.9202 147.5 38.0602 141.43 28.7402 130.85C18.2502 118.94 12.7002 102.46 12.7002 83.1898C12.7002 39.2099 29.4802 17.8398 63.9902 17.8398C82.0102 17.8398 94.8902 23.3998 103.35 34.8298C111.38 45.6598 115.28 61.4798 115.28 83.1998C115.28 102.47 109.73 118.95 99.2402 130.86C89.9402 141.43 77.0802 147.5 64.0002 147.5Z" fill="url(#paint0_linear_183_91)" style=""/>
</g>
<defs>
<linearGradient id="paint0_linear_183_91" x1="64.0002" y1="146.44" x2="64.0002" y2="19.0198" gradientUnits="userSpaceOnUse">
<stop stop-color="#FFB300" style="stop-color:#FFB300;stop-color:color(display-p3 1.0000 0.7020 0.0000);stop-opacity:1;"/>
<stop offset="0.102" stop-color="#FFB809" style="stop-color:#FFB809;stop-color:color(display-p3 1.0000 0.7216 0.0353);stop-opacity:1;"/>
<stop offset="0.3707" stop-color="#FFC21A" style="stop-color:#FFC21A;stop-color:color(display-p3 1.0000 0.7608 0.1020);stop-opacity:1;"/>
<stop offset="0.6592" stop-color="#FFC825" style="stop-color:#FFC825;stop-color:color(display-p3 1.0000 0.7843 0.1451);stop-opacity:1;"/>
<stop offset="1" stop-color="#FFCA28" style="stop-color:#FFCA28;stop-color:color(display-p3 1.0000 0.7922 0.1569);stop-opacity:1;"/>
</linearGradient>
<clipPath id="clip0_183_91">
<rect width="128" height="128" fill="white" style="fill:white;fill-opacity:1;"/>
</clipPath>
</defs>
</svg>

<svg enable-background="new 0 0 128 128" viewBox="0 0 128 128" xmlns="http://www.w3.org/2000/svg" xmlns:xlink="http://www.w3.org/1999/xlink"><defs><rect id="d" x="4" y="4" width="120" height="120"/></defs><clipPath id="a"><use xlink:href="#d"/></clipPath><g clip-path="url(#a)"><path d="m20.9 112.77c-8.45 0-15.32-7.37-15.32-16.42s6.87-16.42 15.32-16.42h86.2c8.45 0 15.32 7.37 15.32 16.42s-6.87 16.42-15.32 16.42h-86.2z" fill="#E59600"/><path d="m107.1 81.51c7.58 0 13.74 6.66 13.74 14.85s-6.17 14.85-13.74 14.85h-86.2c-7.58 0-13.74-6.66-13.74-14.85s6.17-14.85 13.74-14.85h86.2m0-3.16h-86.2c-9.29 0-16.9 8.1-16.9 18s7.6 18 16.9 18h86.2c9.29 0 16.9-8.1 16.9-18s-7.6-18-16.9-18z" fill="#CC8600"/></g><g clip-path="url(#a)"><linearGradient id="c" x1="64" x2="64" y1="146.44" y2="19.02" gradientUnits="userSpaceOnUse"><stop stop-color="#FFB300" offset="0"/><stop stop-color="#FFB809" offset=".102"/><stop stop-color="#FFC21A" offset=".3707"/><stop stop-color="#FFC825" offset=".6592"/><stop stop-color="#FFCA28" offset="1"/></linearGradient><path d="m64 147.5c-13.08 0-25.94-6.07-35.26-16.65-10.49-11.91-16.04-28.39-16.04-47.66 0-43.98 16.78-65.35 51.29-65.35 18.02 0 30.9 5.56 39.36 16.99 8.03 10.83 11.93 26.65 11.93 48.37 0 19.27-5.55 35.75-16.04 47.66-9.3 10.57-22.16 16.64-35.24 16.64z" fill="url(#c)"/><path d="m64 19.42c17.48 0 29.95 5.35 38.1 16.35 7.71 10.41 11.62 26.36 11.62 47.43 0 18.88-5.41 35-15.64 46.61-9.02 10.24-21.44 16.12-34.07 16.12s-25.05-5.87-34.07-16.12c-10.23-11.62-15.64-27.74-15.64-46.61 0-20.82 3.91-36.69 11.63-47.18 8.19-11.18 20.65-16.6 38.07-16.6m0-3.16c-37.86 0-52.87 25.37-52.87 66.93 0 42.02 26.19 65.88 52.87 65.88s52.87-23.87 52.87-65.88c0-42.24-15.01-66.93-52.87-66.93z" fill="#EDA600"/></g><g clip-path="url(#a)"><defs><path id="b" d="m64 4.03h-0.02s-0.01 0-0.02 0c-45.43 0.24-36.12 52.14-36.12 52.14s5.1 8.99 5.1 8.81c-0.03-1.41 0.46-6.89 0.46-6.89l-2.68-2.92s3.89-25.44 6.79-24.91c4.45 0.81 26.54 2 26.57 2 7.83 0 14.92-0.36 19.37-1.17 2.9-0.53 9.64 1.7 10.68 4.45 1.33 3.54 3.13 19.71 3.13 19.71l-2.68 2.83s0.49 5.51 0.46 6.89c0 0.18 5.1-8.81 5.1-8.81s9.3-51.89-36.14-52.13z"/></defs><clipPath><use xlink:href="#b"/></clipPath></g><path d="m128 0h-4c-0.55 0-1 0.45-1 1s0.45 1 1 1h4v-2zm-12 0h-4c-0.55 0-1 0.45-1 1s0.45 1 1 1h4c0.55 0 1-0.45 1-1s-0.45-1-1-1zm-12 0h-4c-0.55 0-1 0.45-1 1s0.45 1 1 1h4c0.55 0 1-0.45 1-1s-0.45-1-1-1zm-12 0h-4c-0.55 0-1 0.45-1 1s0.45 1 1 1h4c0.55 0 1-0.45 1-1s-0.45-1-1-1zm-12 0h-4c-0.55 0-1 0.45-1 1s0.45 1 1 1h4c0.55 0 1-0.45 1-1s-0.45-1-1-1zm-12 0h-4c-0.55 0-1 0.45-1 1s0.45 1 1 1h4c0.55 0 1-0.45 1-1s-0.45-1-1-1zm-12 0h-4c-0.55 0-1 0.45-1 1s0.45 1 1 1h4c0.55 0 1-0.45 1-1s-0.45-1-1-1zm-12 0h-4c-0.55 0-1 0.45-1 1s0.45 1 1 1h4c0.55 0 1-0.45 1-1s-0.45-1-1-1zm-12 0h-4c-0.55 0-1 0.45-1 1s0.45 1 1 1h4c0.55 0 1-0.45 1-1s-0.45-1-1-1zm-12 0h-4c-0.55 0-1 0.45-1 1s0.45 1 1 1h4c0.55 0 1-0.45 1-1s-0.45-1-1-1zm-12 0h-4c-0.55 0-1 0.45-1 1s0.45 1 1 1h4c0.55 0 1-0.45 1-1s-0.45-1-1-1zm-7 3c-0.55 0-1 0.45-1 1v4c0 0.55 0.45 1 1 1s1-0.45 1-1v-4c0-0.55-0.45-1-1-1zm0 12c-0.55 0-1 0.45-1 1v4c0 0.55 0.45 1 1 1s1-0.45 1-1v-4c0-0.55-0.45-1-1-1zm0 12c-0.55 0-1 0.45-1 1v4c0 0.55 0.45 1 1 1s1-0.45 1-1v-4c0-0.55-0.45-1-1-1zm0 12c-0.55 0-1 0.45-1 1v4c0 0.55 0.45 1 1 1s1-0.45 1-1v-4c0-0.55-0.45-1-1-1zm0 12c-0.55 0-1 0.45-1 1v4c0 0.55 0.45 1 1 1s1-0.45 1-1v-4c0-0.55-0.45-1-1-1zm0 12c-0.55 0-1 0.45-1 1v4c0 0.55 0.45 1 1 1s1-0.45 1-1v-4c0-0.55-0.45-1-1-1zm0 12c-0.55 0-1 0.45-1 1v4c0 0.55 0.45 1 1 1s1-0.45 1-1v-4c0-0.55-0.45-1-1-1zm0 12c-0.55 0-1 0.45-1 1v4c0 0.55 0.45 1 1 1s1-0.45 1-1v-4c0-0.55-0.45-1-1-1zm0 12c-0.55 0-1 0.45-1 1v4c0 0.55 0.45 1 1 1s1-0.45 1-1v-4c0-0.55-0.45-1-1-1zm0 12c-0.55 0-1 0.45-1 1v4c0 0.55 0.45 1 1 1s1-0.45 1-1v-4c0-0.55-0.45-1-1-1zm0 12c-0.55 0-1 0.45-1 1v4h2v-4c0-0.55-0.45-1-1-1zm11 3h-4c-0.55 0-1 0.45-1 1s0.45 1 1 1h4c0.55 0 1-0.45 1-1s-0.45-1-1-1zm12 0h-4c-0.55 0-1 0.45-1 1s0.45 1 1 1h4c0.55 0 1-0.45 1-1s-0.45-1-1-1zm12 0h-4c-0.55 0-1 0.45-1 1s0.45 1 1 1h4c0.55 0 1-0.45 1-1s-0.45-1-1-1zm12 0h-4c-0.55 0-1 0.45-1 1s0.45 1 1 1h4c0.55 0 1-0.45 1-1s-0.45-1-1-1zm12 0h-4c-0.55 0-1 0.45-1 1s0.45 1 1 1h4c0.55 0 1-0.45 1-1s-0.45-1-1-1zm12 0h-4c-0.55 0-1 0.45-1 1s0.45 1 1 1h4c0.55 0 1-0.45 1-1s-0.45-1-1-1zm12 0h-4c-0.55 0-1 0.45-1 1s0.45 1 1 1h4c0.55 0 1-0.45 1-1s-0.45-1-1-1zm12 0h-4c-0.55 0-1 0.45-1 1s0.45 1 1 1h4c0.55 0 1-0.45 1-1s-0.45-1-1-1zm12 0h-4c-0.55 0-1 0.45-1 1s0.45 1 1 1h4c0.55 0 1-0.45 1-1s-0.45-1-1-1zm12 0h-4c-0.55 0-1 0.45-1 1s0.45 1 1 1h4c0.55 0 1-0.45 1-1s-0.45-1-1-1zm7-3c-0.55 0-1 0.45-1 1v4h2v-4c0-0.55-0.45-1-1-1zm0-12c-0.55 0-1 0.45-1 1v4c0 0.55 0.45 1 1 1s1-0.45 1-1v-4c0-0.55-0.45-1-1-1zm0-12c-0.55 0-1 0.45-1 1v4c0 0.55 0.45 1 1 1s1-0.45 1-1v-4c0-0.55-0.45-1-1-1zm0-12c-0.55 0-1 0.45-1 1v4c0 0.55 0.45 1 1 1s1-0.45 1-1v-4c0-0.55-0.45-1-1-1zm0-12c-0.55 0-1 0.45-1 1v4c0 0.55 0.45 1 1 1s1-0.45 1-1v-4c0-0.55-0.45-1-1-1zm0-12c-0.55 0-1 0.45-1 1v4c0 0.55 0.45 1 1 1s1-0.45 1-1v-4c0-0.55-0.45-1-1-1zm0-12c-0.55 0-1 0.45-1 1v4c0 0.55 0.45 1 1 1s1-0.45 1-1v-4c0-0.55-0.45-1-1-1zm0-12c-0.55 0-1 0.45-1 1v4c0 0.55 0.45 1 1 1s1-0.45 1-1v-4c0-0.55-0.45-1-1-1zm0-12c-0.55 0-1 0.45-1 1v4c0 0.55 0.45 1 1 1s1-0.45 1-1v-4c0-0.55-0.45-1-1-1zm0-12c-0.55 0-1 0.45-1 1v4c0 0.55 0.45 1 1 1s1-0.45 1-1v-4c0-0.55-0.45-1-1-1zm0-12c-0.55 0-1 0.45-1 1v4c0 0.55 0.45 1 1 1s1-0.45 1-1v-4c0-0.55-0.45-1-1-1z"/></svg>
